X:59
T:Five Foot Two, Eyes of Blue
C:Arr. John Baldry
N:TablEdited by Mike Stangeland
L:1/8
Q:1/4=210
M:4/4
K:G
z8 |: "G"{^A,}B,D EG Bd BA | "B7"B,D ^DF AB zd | "E"ee ee ee ee | ^ge =ge fe ^ce | 
"A7"ze ga g2 e=f | "D7"fe dc BA GF |1 G2 GA BA GD | "D"[AF][AF] [A2F2] [A2F2] A,^A, :|2 G"G"A ^AB dB =AF | 
G2 G2 A2 ^A2 |] "B"BB B2 ^d2 f2 | ^gf2f bf gf | (3"E"bbb (3bbb (3bbb (3^g=gf | 
(3eee (3eee (3eee e2 | "A"za z2 a2 eg | ag ed ^cA2A | (3"D"[fd][fd][fd] (3[fd][fd][fd] (3[fd][fd][fd] (3[f^c][fc][fc] | 
(3"D7"[fc][fc][fc] (3[fc][fc][fc] (3[fc][fc][fc] [f2c2] | "G"z2 d2 B2 A^A | "B7"B^d zB zB BB | 
"E"B2 e2 B2 e2 | Be2e B2 e2 | "A7"g2 e2 g2 e2 | "D7"(3GGG (3GGG GA Bd | "G"g8 | 


